assets/img/icon.svg

<svg xmlns="http://www.w3.org/2000/svg" viewBox="0 0 301 319"><path d="M17.5,277.6A17.46,17.46,0,0,1,0,260.1V98.9a17.5,17.5,0,0,1,35,0V260.1A17.46,17.46,0,0,1,17.5,277.6Z" fill="#1c2a55"/><path d="M118.3,227.2a17.46,17.46,0,0,1-17.5-17.5V129.2a17.5,17.5,0,0,1,35,0v80.5A17.46,17.46,0,0,1,118.3,227.2Z" fill="#1c2a55"/><path d="M283.5,313.2A17.46,17.46,0,0,1,266,295.7V108.8a17.5,17.5,0,0,1,35,0V295.7A17.46,17.46,0,0,1,283.5,313.2Z" fill="#aecdd9"/><path d="M66.8,319a17.46,17.46,0,0,1-17.5-17.5V63.7a17.5,17.5,0,0,1,35,0V301.5A17.46,17.46,0,0,1,66.8,319Z" fill="#e99214"/><path d="M169.3,290a17.46,17.46,0,0,1-17.5-17.5V17.5a17.5,17.5,0,0,1,35,0v255A17.46,17.46,0,0,1,169.3,290Z" fill="#aecdd9"/><path d="M222.3,308.5A17.46,17.46,0,0,1,204.8,291V134a17.5,17.5,0,0,1,35,0V291A17.46,17.46,0,0,1,222.3,308.5Z" fill="#339cd1"/></svg>

<?xml version="1.0" encoding="utf-8"?>
<!-- Generator: Adobe Illustrator 25.4.1, SVG Export Plug-In . SVG Version: 6.00 Build 0)  -->
<svg version="1.1" id="レイヤー_1" xmlns="http://www.w3.org/2000/svg" xmlns:xlink="http://www.w3.org/1999/xlink" x="0px"
	 y="0px" viewBox="0 0 301 319" style="enable-background:new 0 0 301 319;" xml:space="preserve">
<style type="text/css">
	.st0{fill:#1C2A55;}
	.st1{fill:#AECDD9;}
	.st2{fill:#E99214;}
	.st3{fill:#339CD1;}
</style>
<g>
	<path class="st0" d="M17.5,277.6c-9.7,0-17.5-7.8-17.5-17.5V98.9c0-9.7,7.8-17.5,17.5-17.5S35,89.2,35,98.9v161.2
		C35,269.8,27.2,277.6,17.5,277.6z"/>
	<path class="st0" d="M118.3,227.2c-9.7,0-17.5-7.8-17.5-17.5v-80.5c0-9.7,7.8-17.5,17.5-17.5s17.5,7.8,17.5,17.5v80.5
		C135.8,219.4,128,227.2,118.3,227.2z"/>
	<path class="st1" d="M283.5,313.2c-9.7,0-17.5-7.8-17.5-17.5V108.8c0-9.7,7.8-17.5,17.5-17.5s17.5,7.8,17.5,17.5v186.9
		C301,305.4,293.2,313.2,283.5,313.2z"/>
	<path class="st2" d="M66.8,319c-9.7,0-17.5-7.8-17.5-17.5V63.7c0-9.7,7.8-17.5,17.5-17.5S84.3,54,84.3,63.7v237.8
		C84.3,311.2,76.5,319,66.8,319z"/>
	<path class="st1" d="M169.3,290c-9.7,0-17.5-7.8-17.5-17.5v-255c0-9.7,7.8-17.5,17.5-17.5s17.5,7.8,17.5,17.5v255
		C186.8,282.2,179,290,169.3,290z"/>
	<path class="st3" d="M222.3,308.5c-9.7,0-17.5-7.8-17.5-17.5V134c0-9.7,7.8-17.5,17.5-17.5s17.5,7.8,17.5,17.5v157
		C239.8,300.7,232,308.5,222.3,308.5z"/>
</g>
</svg>
